X: 1
T:The Copper Cliff Highlanders March Past
M:C|
L:1/8
Q:80
C:Wm. Livingstone, Sr.
S:March
K:HP
|: e|
{g}A{g}B/4d3/4{gef}ed/4{e}B3/4|
{Gdc}d{e}G{gBd}Be|
{g}A{g}B/4d3/4{gef}ed/4{e}B3/4|  !
{gef}ea{g}ae3/4f/4{a}g3/4f/4{g}e3/4d/4{gef}ea|
g3/4f/4{g}e3/4d/4{gef}e{g}A|
{Gdc}d{g}B/4d3/4{gef}ed/4{e}B3/4|  !
{gef}e{g}A{GAG}A:| [|
e|
{g}fe/4{g}d3/4{gef}ea|
g3/4f/4{g}e3/4d/4{gef}e{g}A|  !
{gfg}fe/2{g}d/2{a}g3/4f/4{g}e3/4d/4|
{gf}gd{gdc}d3/2e/2{g}fe/4{g}d3/4{gef}ea|
g3/4f/4{g}e3/4d/4{gef}e{g}A|  !
{Gdc}d{g}B/4d3/4{gef}ed/4{e}B3/4|
{gef}e{g}A{GAG}A3/2e/2{g}fe/4{g}d3/4{gef}ea|
g3/4f/4{g}e3/4d/4{gef}e{g}A|  !
{a}g3/4f/4{g}e3/4d/4{a}g3/4f/4{g}e/4d3/4|
{gf}gd{gdc}d3/2e/2{g}A{g}B/4d3/4{gef}e{g}A|
{g}B/4{d}A3/4{g}B/4d3/4{gef}e{g}A|  !
{Gdc}d{g}B/4d3/4{gef}ed/4{e}B3/4|
{gef}e{g}A{GAG}A|]
